X: 4166
T: Blue Lake, The
R: hornpipe
M: 4/4
K: Gmajor
D2DEG2EG|c2cG AGEG|c2cd egdB|cBAGE2GE|
D2DEG2EG|c2cB cege|(3ded BG AGED|G2GFG2z2:|
|:gedB ded2|gedB ded2|c2cd egdB|cBAGE2GE|
D2DEG2EG|c2cB cege|(3ded BG AGED|G2GFG2:|

